X:1
T: The Full Moon
C:
R:Jig
Q:180
K:D
M:6/8
L:1/16
g2|f2e2d2 c2A2A2|f2e2d2 c2B2A2|F2G2A2 A2B2G2|F2G2A2 A4g2|f2e2d2 c2A2A2|f2e2d2 c2A2G2|F2D2F2 G4AG|F2D2D2 D4g2|
f2e2d2 c2A2A2|f2e2d2 c2B2A2|F2G2A2 A2B2G2|F2G2A2 A4g2|f2e2d2 c2A2A2|f2e2d2 c2A2G2|F2D2F2 G4AG|F2D2D2 D4AG|
F2G2A2 A2B2c2|def2d2 c2A2G2|c2A2A2 A4G2|c2A2A2 A4g2|f2e2d2 c2A2A2|f2e2d2 c2A2G2|F2D2F2 G4AG|F2D2D2 D4AG|
F2G2A2 A2B2c2|def2d2 c2A2G2|c2A2A2 A4G2|c2A2A2 A4g2|f2e2d2 c2A2A2|f2e2d2 c2A2G2|F2D2F2 G4AG|F2D2D2 D4||
